svg/editor/asterisk_line.svg

<?xml version="1.0" encoding="UTF-8"?>
<svg width="24px" height="24px" viewBox="0 0 24 24" version="1.1" xmlns="http://www.w3.org/2000/svg" xmlns:xlink="http://www.w3.org/1999/xlink">
    <title>asterisk_line</title>
    <g id="页面-1" stroke="none" stroke-width="1" fill="none" fill-rule="evenodd">
        <g id="Editor" transform="translate(-336.000000, -96.000000)" fill-rule="nonzero">
            <g id="asterisk_line" transform="translate(336.000000, 96.000000)">
                 <path d="M24,0 L24,24 L0,24 L0,0 L24,0 Z M12.5934901,23.257841 L12.5819402,23.2595131 L12.5108777,23.2950439 L12.4918791,23.2987469 L12.4918791,23.2987469 L12.4767152,23.2950439 L12.4056548,23.2595131 C12.3958229,23.2563662 12.3870493,23.2590235 12.3821421,23.2649074 L12.3780323,23.275831 L12.360941,23.7031097 L12.3658947,23.7234994 L12.3769048,23.7357139 L12.4804777,23.8096931 L12.4953491,23.8136134 L12.4953491,23.8136134 L12.5071152,23.8096931 L12.6106902,23.7357139 L12.6232938,23.7196733 L12.6232938,23.7196733 L12.6266527,23.7031097 L12.609561,23.275831 C12.6075724,23.2657013 12.6010112,23.2592993 12.5934901,23.257841 L12.5934901,23.257841 Z M12.8583906,23.1452862 L12.8445485,23.1473072 L12.6598443,23.2396597 L12.6498822,23.2499052 L12.6498822,23.2499052 L12.6471943,23.2611114 L12.6650943,23.6906389 L12.6699349,23.7034178 L12.6699349,23.7034178 L12.678386,23.7104931 L12.8793402,23.8032389 C12.8914285,23.8068999 12.9022333,23.8029875 12.9078286,23.7952264 L12.9118235,23.7811639 L12.8776777,23.1665331 C12.8752882,23.1545897 12.8674102,23.1470016 12.8583906,23.1452862 L12.8583906,23.1452862 Z M12.1430473,23.1473072 C12.1332178,23.1423925 12.1221763,23.1452606 12.1156365,23.1525954 L12.1099173,23.1665331 L12.0757714,23.7811639 C12.0751323,23.7926639 12.0828099,23.8018602 12.0926481,23.8045676 L12.108256,23.8032389 L12.3092106,23.7104931 L12.3186497,23.7024347 L12.3186497,23.7024347 L12.3225043,23.6906389 L12.340401,23.2611114 L12.337245,23.2485176 L12.337245,23.2485176 L12.3277531,23.2396597 L12.1430473,23.1473072 Z" id="MingCute" fill-rule="nonzero"></path>
                <path d="M11.9999,3 C12.5522,3 12.9999,3.44772 12.9999,4 L12.9999,10.268 L18.4281,7.13397 C18.9064,6.85783 19.518,7.02171 19.7942,7.5 C20.0703,7.97829 19.9064,8.58988 19.4281,8.86603 L13.9999,12 L19.4281,15.134 C19.9064,15.4101 20.0703,16.0217 19.7941,16.5 C19.518,16.9783 18.9064,17.1422 18.4281,16.866 L12.9999,13.7321 L12.9999,20 C12.9999,20.5523 12.5522,21 11.9999,21 C11.4476,21 10.9999,20.5523 10.9999,20 L10.9999,13.7321 L5.57174,16.866 C5.09345,17.1422 4.48186,16.9783 4.20571,16.5 C3.92957,16.0217 4.09345,15.4101 4.57174,15.134 L9.99992,12 L4.5717,8.86603 C4.09341,8.58988 3.92953,7.97829 4.20567,7.5 C4.48182,7.02171 5.09341,6.85783 5.5717,7.13397 L10.9999,10.268 L10.9999,4 C10.9999,3.44772 11.4476,3 11.9999,3 Z" id="路径" fill="#09244B"></path>
            </g>
        </g>
    </g>
</svg>

<svg xmlns="http://www.w3.org/2000/svg" width="24" height="24"><g fill="none" fill-rule="nonzero"><path d="M24 0v24H0V0h24ZM12.593 23.258l-.011.002-.071.035-.02.004-.014-.004-.071-.035c-.01-.004-.019-.001-.024.005l-.004.01-.017.428.005.02.01.013.104.074.015.004.012-.004.104-.074.012-.016.004-.017-.017-.427c-.002-.01-.009-.017-.017-.018Zm.265-.113-.013.002-.185.093-.01.01-.003.011.018.43.005.012.008.007.201.093c.012.004.023 0 .029-.008l.004-.014-.034-.614c-.003-.012-.01-.02-.02-.022Zm-.715.002a.023.023 0 0 0-.027.006l-.006.014-.034.614c0 .012.007.02.017.024l.015-.002.201-.093.01-.008.004-.011.017-.43-.003-.012-.01-.01-.184-.092Z"/><path fill="#09244B" d="M12 3a1 1 0 0 1 1 1v6.268l5.428-3.134a1 1 0 0 1 1 1.732L14 12l5.428 3.134a1 1 0 1 1-1 1.732L13 13.732V20a1 1 0 1 1-2 0v-6.268l-5.428 3.134a1 1 0 1 1-1-1.732L10 12 4.572 8.866a1 1 0 0 1 1-1.732L11 10.268V4a1 1 0 0 1 1-1Z"/></g></svg>
